X: 1720
T: LIMERICK JUNCTION
M:C|
L:1/8
B:O'NEILL'S 1720
N:"collected by J. O'Neill"
Z:Transcribed by A.LEE WORMAN
K:D
(A>G) "S"| F2 F>E F>Ad>A | B>G (3F-E-D C>D E2 | F>Ad>f a>fd>f | (3efd (3cdB (3ABG (3FGE |
F2 F>E F>Ad>A | B>G (3FED C>DE>c | d>cd>A B>G (3EFG | F2 D2 D2 "H" ||
(e>d) | c>de>f g>ec>e | d>e (3fga b>af>a | a>ge>g g>fd>f | e2 a2 a2 e>d |
c>de>f g>ec>e | d>ef>g a>fd>f | g>fe>g f>ed>f | (3efd (3cdB (3ABG (3FGE "S" |]


